X: 368
T: Liberty
O: Trad
Z: 1997 by John Chambers <jc:trillian.mit.edu>
M: C|
L: 1/8
K: D
|: de |\
"D" f2A2 f2A2 | fgfe d2ef | "G"g2B2 g2B2 | gagf e2de |\
"D" f2A2 f2A2 | fgfe d2ef | "G"gfed "A7"cABc | "D"d6 :|
|: FG |\
"D"A2AB AGFE | DFAd f4 | A2AB AGF2 | "A7"E6 FG |\
"D"A2AB AGFE | DFAd f2ef | "G"gfed "A7"cABc | "D"d6 :|

%%sep 1 1 500

